!!!COM:	Martini, Johannes
!!!CDT:	~1440///-~1497//
!!!OPR:	Missa Cela sans plus
!!!ONM:	3
!!!OTL:	Credo
!!!AGN:	Mass; Credo
!!!SCT:	Mar1001c
!!!SCA:	Mar1001c
!!!voices:	4
!!!voices-OPR:	4
**kern	**kern	**kern	**kern
*staff4	*staff3	*staff2	*staff1
*Ivox	*Ivox	*Ivox	*Ivox
*I"Bassus	*I"Tenor	*I"Altus	*I"Superius
*I'B	*I'T	*I'A	*I'S
*>[A,B,C]	*>[A,B,C]	*>[A,B,C]	*>[A,B,C]
*>A	*>A	*>A	*>A
*clefF4	*clefGv2	*clefGv2	*clefG2
*k[]	*k[]	*k[]	*k[]
*M3/1	*M3/1	*M3/1	*M3/1
*met(O)	*met(O)	*met(O)	*met(O)
!!section: Patrem omnipotentem
!!!OMD: Patrem omnipotentem
=1-	=1-	=1-	=1-
1D	0.r	1.d	0.r
1F	.	.	.
.	.	2c\	.
1G	.	1B	.
=2	=2	=2	=2
2A\	0.r	1A	1.a
1F	.	.	.
.	.	1c	.
2E\	.	.	2g/
2.D\	.	1d	1f
4C/	.	.	.
=3	=3	=3	=3
2AA/	0.r	2.c\	1e
2.C/	.	.	.
.	.	4d\	.
.	.	2e\	1g
4BB/	.	.	.
2GG/	.	2d\	.
2D\	.	1f	1a
2F\	.	.	.
=4	=4	=4	=4
1C	0.r	1e	2.g/
.	.	.	4a/
2GG/	.	2d\	2b\
2.AA/	.	2.c\	2a/
.	.	.	1cc
4BB/	.	4B\	.
4C/	.	[2A/	.
4D\	.	.	.
=5	=5	=5	=5
1E	0.r	2A/]	1b
.	.	2G/	.
2AA/	.	2A/	2a/
1C	.	2E/	2.g/
.	.	2G/	.
.	.	.	4f/
2C/	.	2A/	[2e/
=6	=6	=6	=6
1D	0.r	1F	2e/]
.	.	.	2d/
2G\	.	1E	2e/
4F\	.	.	2B/
4E\	.	.	.
2D\	.	2F/	2d/
[2C/	.	2G/	2e/
=7	=7	=7	=7
2C/]	0.r	2E/	1c
2AA/	.	1A	.
1E	.	.	1B
.	.	2G/	.
2r	.	2A/	2c/
2D\	.	2B\	2d/
=8	=8	=8	=8
2E\	0.r	2G/	2B/
2C/	.	1c	1e
2.G\	.	.	.
.	.	2B\	2d/
4F\	.	.	.
2E\	.	2c\	2e/
[2D\	.	[2d\	2f/
=9	=9	=9	=9
2D\]	0.r	4d\]	2d/
.	.	4c\	.
2GG/	.	2B\	1g
1D	.	2A/	.
.	.	2A/	2f/
2E\	.	2G/	2g/
2D\	.	4F/	[2a/
.	.	4E/	.
=10	=10	=10	=10
2.F\	0.r	2D/	4a/]
.	.	.	4g/
.	.	1d	2f/
4G\	.	.	.
1A	.	.	1e
.	.	2c\	.
2D\	.	2d\	1d
2G\	.	2B\	.
=11	=11	=11	=11
2F\	0.r	2A/	0.r
2D\	.	2.d\	.
2.G\	.	.	.
.	.	4c\	.
.	.	4B\	.
4F\	.	4A/	.
4E\	.	2G/	.
4D\	.	.	.
2F\	.	2A/	.
=12	=12	=12	=12
2E\	0.r	2c\	0.r
2.D\	.	4A/	.
.	.	2B\	.
4C/	.	4A/	.
4BB/	.	1A	.
4AA/	.	.	.
1BB	.	.	.
.	.	2G#i/	.
=13	=13	=13	=13
0.AA	[0.A	2A/	1e
.	.	4G/	.
.	.	4F/	.
.	.	1E	2c/
.	.	.	2d/
.	.	1A	2e/
.	.	.	[2f/
=14	=14	=14	=14
1r	1A]	1c	4f/]
.	.	.	4e/
.	.	.	4d/
.	.	.	4c/
1r	1G	2r	1B
.	.	1.d	.
1D	1F	.	1A
=15	=15	=15	=15
0G	0E	2e\	0B
.	.	2.g\	.
.	.	4f\	.
.	.	2.e\	.
1A	1r	.	1c
.	.	4d\	.
.	.	4c\	.
.	.	4B\	.
=16	=16	=16	=16
1F	1D	2A/	1d
.	.	1d	.
0E	0G	.	0e
.	.	2c#i\	.
.	.	2.c#i\	.
.	.	4B\	.
=17	=17	=17	=17
1D	0A	1d	1f
1AA	.	2.c\	2f/
.	.	.	2.e/
.	.	4d\	.
1C	1G	2e\	.
.	.	.	4d/
.	.	[2e\	4c/
.	.	.	4B/
=18	=18	=18	=18
1D	1F	2e\]	2A/
.	.	2d\	1d
0AA	0E	1e	.
.	.	.	2c#i/
.	.	1A	2.c#i/
.	.	.	4B/
=19	=19	=19	=19
2r	0D	1.F	0.d
1A	.	.	.
1F	.	1A	.
.	1r	.	.
2D\	.	2d\	.
=20	=20	=20	=20
2E\	1G	1B	1r
1G	.	.	.
.	1A	1c	1r
2F\	.	.	.
1G	1B	2r	1g
.	.	2d\	.
=21	=21	=21	=21
2F\	2c\	1f	1a
2D\	1d	.	.
1G	.	2d\	1b
.	2G/	1e	.
2r	2A/	.	2cc\
[2GG/	2B\	[2d\	[2dd\
=22	=22	=22	=22
4GG/]	1G	2d\]	2dd\]
4AA/	.	.	.
4BB/	.	2B\	2g/
4C/	.	.	.
2AA/	2F/	2c\	2a/
2GG/	2G/	2d\	2b\
2r	2.c\	1e	1g
2C/	.	.	.
.	4B\	.	.
=23	=23	=23	=23
2D\	2A/	2d\	2f/
2E\	2G/	2c\	2g/
1D	1d	2d\	2b\
.	.	1f	2.a/
2F\	2c\	.	.
.	.	.	4g/
2G\	2B\	2e\	[2g/
=24	=24	=24	=24
1D	1A	1d	2g/]
.	.	.	2f#i/
0GG	0G	2B\	1g
.	.	2G/	.
.	.	2d\	1r
.	.	[2d\	.
=25	=25	=25	=25
2GG/	0.r	4d\]	0.r
.	.	4c\	.
2D\	.	4B\	.
.	.	4A/	.
2.D\	.	2B\	.
.	.	1A	.
4C/	.	.	.
4BB/	.	.	.
4AA/	.	.	.
2BB/	.	2G/	.
=26	=26	=26	=26
2AA/	0.r	2A/	0.r
1D	.	4G/	.
.	.	4F/	.
.	.	1E	.
2C#i/	.	.	.
1D	.	2D/	.
.	.	2F/	.
=27	=27	=27	=27
2E\	0.r	2G/	0.r
2D\	.	1A	.
1F	.	.	.
.	.	1d	.
2D\	.	.	.
[2E\	.	2B\	.
=28	=28	=28	=28
2E\]	0.r	2c\	0.r
2C/	.	2.A/	.
2D\	.	.	.
.	.	4G/	.
2BB/	.	1G	.
1AA	.	.	.
.	.	2F#i/	.
=29	=29	=29	=29
1GG	0.d	1G	1g
1.D	.	1A	1f
.	.	1B	2f/
2E\	.	.	2g/
=30	=30	=30	=30
1F	1c	1A	1a
1G	1B	2r	2d/
.	.	1d	2g/
1D	[1A	.	2a/
.	.	2A/	[2f/
=31	=31	=31	=31
1D	1A]	2.d\	4f/]
.	.	.	4e/
.	.	.	2f/
.	.	4c\	.
1E	0G	1B	1g
2C/	.	2c\	2r
2BB/	.	2d\	[2dd\
=32	=32	=32	=32
1AA	1A	1e	2dd\]
.	.	.	2cc\
1.D	1F	0d	2dd\
.	.	.	2a/
.	1D	.	2b\
[2F\	.	.	[2a/
=33	=33	=33	=33
2F\]	2r	1A	4a/]
.	.	.	4g/
2D\	1d	.	2f/
1A	.	2r	1e
.	2c\	2A/	.
1D	2d\	2B\	2d/
.	2A/	2A/	2f/
=34	=34	=34	=34
2GG/	2B\	2d\	2g/
2AA/	2.A/	2c\	2.f/
1D	.	0A	.
.	4G/	.	4e/
.	2F/	.	1d
1AA	1E	.	.
.	.	.	2c#i/
=35	=35	=35	=35
1A	2D/	1F	1d
.	2F/	.	.
2B\	2G/	1r	1r
2.A\	2.F/	.	.
.	.	1r	1r
4G\	4E/	.	.
2F\	[2D/	.	.
=36	=36	=36	=36
1E	2D/]	0.r	0.r
.	2C#i/	.	.
1D	2D/	.	.
.	2.A/	.	.
2C/	.	.	.
.	4G/	.	.
2BB/	[2G/	.	.
=37	=37	=37	=37
1AA	2G/]	1r	1r
.	2F#i/	.	.
1GG	1G	1d	1r
1C	1r	1e	1g
=38	=38	=38	=38
1AA	1r	1e	0a
1D	1r	1d	.
1E	1G	1B	1g
=39	=39	=39	=39
0AA	0A	1.c	0e
.	.	1A	.
1D	1F	.	1d
.	.	2F/	.
=40	=40	=40	=40
0C	0E	2G/	0g
.	.	2.c\	.
.	.	4d\	.
.	.	2e\	.
1F	1D	2.A/	1f
.	.	4B\	.
=41	=41	=41	=41
2.C/	0G	2c\	2e/
.	.	4B\	4d/
4D\	.	4A/	4c/
2E\	.	2G/	2B/
2C/	.	2c\	1e
1D	1F	2.A/	.
.	.	.	2d/
.	.	4G/	.
=42	=42	=42	=42
1G	0E	3B\	2e/
.	.	3c\	.
.	.	.	1g
.	.	3d\	.
2E\	.	3e\	.
.	.	3B\	.
2G\	.	.	2e/
.	.	3c\	.
2.F\	1D	2d\	2f/
.	.	[2f\	[2a/
4E\	.	.	.
=43	=43	=43	=43
2D\	0A	4f\]	2a/]
.	.	4e\	.
4C/	.	1d	4g/
4BB/	.	.	4f/
1AA	.	.	2e/
.	.	2c#i\	2.a/
1A	1D	1d	.
.	.	.	4g/
.	.	.	4f/
.	.	.	4e/
=44	=44	=44	=44
2F\	0.r	0.r	2d/
2G\	.	.	2e/
2A\	.	.	2A/
2D\	.	.	1d
1E	.	.	.
.	.	.	2c#i/
=45	=45	=45	=45
1D	1.A	1d	2d/
.	.	.	2r
2.F\	.	2.c\	2.a/
.	1c	.	.
4E\	.	4d\	4g/
2C/	.	2e\	2e/
2D\	2A/	2d\	2f/
=46	=46	=46	=46
2E\	2G/	2B\	2g/
2AA/	1A	1.c	4e/
.	.	.	2f/
1C	.	.	.
.	.	.	4e/
.	2G/	.	1e
1D	1F	2A/	.
.	.	2B\	2d/
=47	=47	=47	=47
1AA	1E	4A/	2e/
.	.	4B\	.
.	.	4c\	1a
.	.	4d\	.
1C	1r	1e	.
.	.	.	2g/
2D\	2r	2A/	1f
2D\	[2A/	2d\	.
=48	=48	=48	=48
1C	2A/]	2e\	1e
.	2G/	2c\	.
1D	1F	2.A/	2r
.	.	.	2d/
.	.	4B\	.
2C/	1E	2c\	2e/
[2E\	.	4B\	[2g/
.	.	4A/	.
=49	=49	=49	=49
2E\]	2r	2G/	2g/]
2F\	2D/	2A/	2f/
2G\	2E/	2B\	1e
2C/	1G	2c\	.
2r	.	2B\	1d
2D\	2F/	[2d\	.
=50	=50	=50	=50
2E\	1E	2d\]	2r
2G\	.	2c#i\	2g/
2A\	1D	2d\	2f/
1F	.	1f	1a
.	2r	.	.
2G\	2G/	2e\	2b\
=51	=51	=51	=51
1A	2F/	1c	2a/
.	1A	.	1cc
2AA/	.	1r	.
2GG/	2B\	.	2dd\
1AA	2A/	1A	2cc\
.	[2c\	.	[2a/
=52	=52	=52	=52
2A\	2c\]	2F/	2a/]
2D\	2d\	2A/	2f/
2E\	2c\	2G/	2g/
1F	1A	2c\	2a/
.	.	2A/	1d
2D\	2F/	[2B\	.
=53	=53	=53	=53
2C/	2G/	4B\]	2e/
.	.	4A/	.
2AA/	2A/	1A	2.f/
1BB-	1D	.	.
.	.	.	4e/
.	.	2G/	1d
1AA	1E	1A	.
.	.	.	2c#i/
=54	=54	=54	=54
0.Al	0.Dl	0.Al	0.dl
!!LO:LB:i:g=z
=55||	=55||	=55||	=55||
*>B	*>B	*>B	*>B
*clefF4	*clefGv2	*clefGv2	*clefG2
*k[]	*k[]	*k[]	*k[]
*M2/1	*M2/1	*M2/1	*M2/1
*met(C|)	*met(C|)	*met(C|)	*met(C|)
!!section: Et incarnatus est
!!!OMD: Et incarnatus est
1D	0r	0r	0r
1D	.	.	.
=56	=56	=56	=56
2E\	0r	0r	0r
2F\	.	.	.
2E\	.	.	.
[2D\	.	.	.
=57	=57	=57	=57
4D\]	0r	1d	0r
4C/	.	.	.
4BB/	.	.	.
4AA/	.	.	.
1BB	.	1d	.
=58	=58	=58	=58
2AA/	0r	2e\	0r
2D\	.	2f\	.
2E\	.	2e\	.
[2F\	.	[2d\	.
=59	=59	=59	=59
4F\]	0r	4d\]	0r
4E\	.	4c\	.
1A	.	4B\	.
.	.	4A/	.
.	.	1B	.
2G#i\	.	.	.
=60	=60	=60	=60
1A	0r	2r	1a
.	.	2.A/	.
1F	.	.	1a
.	.	4B\	.
.	.	2c\	.
=61	=61	=61	=61
2D\	0r	2d\	2b\
2C/	.	2e\	2cc\
[1D	.	2d\	2b\
.	.	[2f\	[2a/
=62	=62	=62	=62
2D\]	0r	4f\]	4a/]
.	.	4e\	4g/
2C/	.	1e	4f/
.	.	.	4e/
1D	.	.	1f
.	.	2d\	.
=63	=63	=63	=63
0AA	0r	1e	2e/
.	.	.	2.A/
.	.	1c	.
.	.	.	4B/
.	.	.	[2c/
=64	=64	=64	=64
0r	0r	2A/	4c/]
.	.	.	4d/
.	.	2G/	2e/
.	.	2B\	2d/
.	.	[2A/	[2f/
=65	=65	=65	=65
0r	0r	2A/]	4f/]
.	.	.	4e/
.	.	2G/	1e
.	.	1F	.
.	.	.	2d/
=66	=66	=66	=66
1G	0r	1E	0e
[1A	.	1r	.
=67	=67	=67	=67
2A\]	0r	0r	1c
1F	.	.	.
.	.	.	1A
4E\	.	.	.
4D\	.	.	.
=68	=68	=68	=68
1E	0r	1G	0r
2D\	.	[1A	.
[2F\	.	.	.
=69	=69	=69	=69
4F\]	0r	2A/]	0r
4E\	.	.	.
1D	.	1F	.
4C/	.	4E/	.
4BB/	.	4D/	.
=70	=70	=70	=70
1C	0r	1E	1g
2r	.	1D	[1a
[2F\	.	.	.
=71	=71	=71	=71
2F\]	0r	0d	2a/]
2D\	.	.	1f
2F\	.	.	.
2G\	.	.	4e/
.	.	.	4d/
=72	=72	=72	=72
2E\	0r	1c	1e
2A\	.	.	.
1D	.	1d	1d
=73	=73	=73	=73
2r	0r	1A	1e
1A	.	.	.
.	.	2D/	2f/
2G\	.	[2E/	[2g/
=74	=74	=74	=74
2B\	0r	2E/]	2g/]
2.A\	.	2C/	2e/
.	.	2D/	2f/
4G\	.	.	.
2F\	.	[2d\	[2a/
=75	=75	=75	=75
1E	0r	2d\]	2a/]
.	.	2c#i\	2g/
2D\	.	1d	2b\
[2F\	.	.	[2a/
=76	=76	=76	=76
2F\]	0r	2r	4a/]
.	.	.	4g/
4E\	.	1A	2f/
4D\	.	.	.
1C	.	.	1e
.	.	2G/	.
=77	=77	=77	=77
1D	0r	2B\	2d/
.	.	2.A/	1f
[1AA	.	.	.
.	.	4G/	.
.	.	2F/	4e/
.	.	.	4d/
=78	=78	=78	=78
1AA]	0r	1E	1c#i
1D	.	1D	1d
=79	=79	=79	=79
1.E	0r	1G	0r
.	.	1G	.
[2G\	.	.	.
=80	=80	=80	=80
2G\]	0r	1A	0r
2F\	.	.	.
2G\	.	2.B\	.
[2E\	.	.	.
.	.	4A/	.
=81	=81	=81	=81
4E\]	0r	2B\	1g
4D\	.	.	.
1C	.	2.c\	.
.	.	.	1g
.	.	4B\	.
2BB/	.	4A/	.
.	.	4G/	.
=82	=82	=82	=82
1AA	0r	2.F#i/	1a
.	.	4E/	.
2GG/	.	1G	2.b\
[2G\	.	.	.
.	.	.	4a/
=83	=83	=83	=83
2G\]	0r	1r	2b\
2A\	.	.	2.cc\
2.F\	.	[1A	.
.	.	.	4b\
.	.	.	4a/
4E\	.	.	4g/
=84	=84	=84	=84
1D	0r	1A]	2.f#i/
.	.	.	4e/
1E	.	1G	1g
=85	=85	=85	=85
1D	0r	1d	0a
1F	.	[1d	.
=86	=86	=86	=86
1G	0r	2d\]	1g
.	.	2c\	.
[1D	.	[1B	1r
=87	=87	=87	=87
2D\]	0r	2B\]	1dd
2C/	.	1A	.
1BB	.	.	[1dd
.	.	[2G/	.
=88	=88	=88	=88
1AA	0r	2G/]	2dd\]
.	.	2F#i/	2cc\
1GG	.	2G/	1b
.	.	[2d\	.
=89	=89	=89	=89
2G\	0r	2d\]	2b\
2A\	.	2c\	1a
2D\	.	2d\	.
2G\	.	2B\	[2g/
=90	=90	=90	=90
1D	0r	1A	2g/]
.	.	.	2f#i/
2E\	.	2G/	2g/
[2F\	.	2c\	[2a/
=91	=91	=91	=91
4F\]	0r	2d\	2a/]
4E\	.	.	.
1C	.	2.e\	2g/
.	.	.	2a/
.	.	4d\	.
2D\	.	[2d\	2f/
=92	=92	=92	=92
1AA	0r	2d\]	1e
.	.	2c#i\	.
1r	.	2d\	2d/
.	.	2e\	2g/
=93	=93	=93	=93
0r	0r	2f\	2a/
.	.	1d	2.b\
.	.	.	4a/
.	.	2c\	[2a/
=94	=94	=94	=94
0r	0r	2B-\	2a/]
.	.	4A/	2g/
.	.	4G/	.
.	.	2F/	2a/
.	.	2G/	2b\
=95	=95	=95	=95
0r	0r	2A/	2cc\
.	.	2.c\	1a
.	.	4d\	.
.	.	[2e\	2g/
=96	=96	=96	=96
0r	0r	2e\]	2f/
.	.	2d\	4e/
.	.	.	4d/
.	.	2e\	2c/
.	.	2f\	2d/
=97	=97	=97	=97
0r	0r	2g\	2e/
.	.	2.e\	2.g/
.	.	4d\	4f/
.	.	2c\	[2a/
=98	=98	=98	=98
0r	0r	4c\	4a/]
.	.	4B\	4g/
.	.	4A/	1g
.	.	4G/	.
.	.	1A	.
.	.	.	2f#i/
=99	=99	=99	=99
0r	0r	0G	0g
=100	=100	=100	=100
*M3/1	*M3/1	*M3/1	*M3/1
*met(3)	*met(3)	*met(3)	*met(3)
0G	0.r	0.r	0.r
1A	.	.	.
=101	=101	=101	=101
1G	0.r	0G	0.r
1E	.	.	.
1F	.	1A	.
=102	=102	=102	=102
0E	0.r	1G	0g
.	.	1E	.
1D	.	1F	1a
=103	=103	=103	=103
1E	0.r	0E	1g
1C	.	.	1e
1D	.	1r	1f
=104	=104	=104	=104
0C	0.r	0G	0e
1D	.	1F	1r
=105	=105	=105	=105
0C	0.r	0E	0g
1D	.	1D	1f
=106	=106	=106	=106
1AA	0.r	0A	0e
1C	.	.	.
1D	.	1B	1d
=107	=107	=107	=107
1.F	0.r	1A	0a
.	.	1c	.
2A\	.	.	.
1G	.	1d	1b
=108	=108	=108	=108
1A	0.r	1c	1a
1F	.	1A	1cc
1D	.	1B	1dd
=109	=109	=109	=109
0F	0.r	0A	1cc
.	.	.	1a
1r	.	1G	1b
=110	=110	=110	=110
1.D	0.r	1F	0a
.	.	0E	.
2BB/	.	.	.
1C	.	.	1g
=111	=111	=111	=111
1D	0.r	1D	1f
1E	.	1C	1.e
1F	.	1D	.
.	.	.	2d/
=112	=112	=112	=112
1D	0.r	1F	0d
0AA	.	0E	.
.	.	.	1c#i
=113	=113	=113	=113
0.Al	0.r	0.Dl	0.dl
!!LO:LB:i:g=z
=114||	=114||	=114||	=114||
*>C	*>C	*>C	*>C
*clefF4	*clefGv2	*clefGv2	*clefG2
*k[]	*k[]	*k[]	*k[]
*M2/1	*M2/1	*M2/1	*M2/1
*met(C|)	*met(C|)	*met(C|)	*met(C|)
!!section: Crucifixus
!!!OMD: Crucifixus
0r	0r	0d	0r
=115	=115	=115	=115
1r	0r	1c	0r
[1D	.	1d	.
=116	=116	=116	=116
1D]	0r	1B	1r
1C	.	1A	1a
=117	=117	=117	=117
1D	0r	1r	1a
1BB	.	1d	1g
=118	=118	=118	=118
1AA	1A	1e	1a
1D	1A	1d	1f
=119	=119	=119	=119
1E	1G	1B	2e/
.	.	.	2g/
1AA	1A	1c	2f/
.	.	.	[2e/
=120	=120	=120	=120
1D	1F	1A	2e/]
.	.	.	2d/
1C	1E	1c	1e
=121	=121	=121	=121
0G	0r	1B	1.d
.	.	[1d	.
.	.	.	4c/
.	.	.	4B/
=122	=122	=122	=122
0F	0r	2d\]	1A
.	.	4c\	.
.	.	4B\	.
.	.	1A	1a
=123	=123	=123	=123
0E	0G	2r	1g
.	.	1B	.
.	.	.	1e
.	.	2c\	.
=124	=124	=124	=124
0D	0F	2d\	1f
.	.	2.f\	.
.	.	.	[1a
.	.	4e\	.
.	.	[2d\	.
=125	=125	=125	=125
1r	0E	2d\]	1a]
.	.	4c#i\	.
.	.	4B\	.
1G	.	1c#i	1g
=126	=126	=126	=126
1A	0D	1d	1f
1F	.	1A	2d/
.	.	.	[2f/
=127	=127	=127	=127
2D\	0r	2F/	2f/]
1C	.	2G/	1e
.	.	2A/	.
2D\	.	2F/	[2d/
=128	=128	=128	=128
1AA	0r	1E	2d/]
.	.	.	2c#i/
1BB	.	1D	1d
=129	=129	=129	=129
1.GG	1G	0r	0r
.	1G	.	.
[2G\	.	.	.
=130	=130	=130	=130
2G\]	1A	0r	0r
2F\	.	.	.
2D\	[1B	.	.
[2G\	.	.	.
=131	=131	=131	=131
4G\]	1B]	0r	0r
4F\	.	.	.
4E\	.	.	.
4D\	.	.	.
1E	1c	.	.
=132	=132	=132	=132
2D\	1d	0r	0r
1G	.	.	.
.	1G	.	.
[2C/	.	.	.
=133	=133	=133	=133
2C/]	2A/	0r	0r
2D\	1B	.	.
1E	.	.	.
.	2c\	.	.
=134	=134	=134	=134
1D	2B\	0r	0r
.	1A	.	.
2C/	.	.	.
2E\	2G/	.	.
=135	=135	=135	=135
1D	2F/	0r	0r
.	1D	.	.
2.GG/	.	.	.
.	2E/	.	.
4AA/	.	.	.
=136	=136	=136	=136
2BB/	2D/	0r	0r
2C/	1G	.	.
1AA	.	.	.
.	2F#i/	.	.
=137	=137	=137	=137
1GG	0G	1d	1g
1C	.	1e	1g
=138	=138	=138	=138
1D	0r	1d	1f
2.F\	.	2A/	1a
.	.	[2c\	.
4E\	.	.	.
=139	=139	=139	=139
2.C/	0r	4c\]	0g
.	.	4B\	.
.	.	2.G/	.
4BB/	.	.	.
2.GG/	.	.	.
.	.	4A/	.
.	.	4B\	.
4AA/	.	4c\	.
=140	=140	=140	=140
2BB/	0r	2d\	1g
2C/	.	2e\	.
2.D\	.	2d\	1f
.	.	4c\	.
4E\	.	4B\	.
=141	=141	=141	=141
2F\	0r	2A/	1f
2G\	.	1d	.
1A	.	.	1e
.	.	2c#i\	.
=142	=142	=142	=142
1D	[0d	2d\	1d
.	.	2.B\	.
1G	.	.	1g
.	.	4A/	.
.	.	[2G/	.
=143	=143	=143	=143
1D	0d]	2G/]	1a
.	.	2F#i/	.
1GG	.	1G	1b
=144	=144	=144	=144
1AA	1c	2E/	1cc
.	.	2F/	.
1GG	1B	2G/	[1dd
.	.	2A/	.
=145	=145	=145	=145
1G	0G	2B\	2dd\]
.	.	2.d\	2.b\
1E	.	.	.
.	.	4B\	4a/
.	.	2c\	[2g/
=146	=146	=146	=146
0D	0A	0d	2g/]
.	.	.	4f#i/
.	.	.	4e/
.	.	.	1f#i
=147	=147	=147	=147
1GG	0G	2r	0g
.	.	2d\	.
1C	.	2e\	.
.	.	2e\	.
=148	=148	=148	=148
1BB	[0G	1d	2r
.	.	.	2d/
1C	.	[1g	2e/
.	.	.	2e/
=149	=149	=149	=149
1GG	0G_	2g\]	1d
.	.	2f\	.
1r	.	2e\	[1g
.	.	4d\	.
.	.	4c\	.
=150	=150	=150	=150
1GG	0G_	2B\	2g/]
.	.	1d	2f/
1C	.	.	2e/
.	.	2c\	4d/
.	.	.	4c/
=151	=151	=151	=151
1G	0G]	1d	2B/
.	.	.	1d
1E	.	1e	.
.	.	.	2c#i/
=152	=152	=152	=152
1D	0A	2.f\	1d
.	.	4e\	.
1AA	.	1c	1e
=153	=153	=153	=153
1D	1A	1d	1f
1GG	1G	1B	1d
=154	=154	=154	=154
0r	1F	1A	1f
.	1D	1d	[1a
=155	=155	=155	=155
0D	1F	1.A	2a/]
.	.	.	2g/
.	[1A	.	1f
.	.	2B\	.
=156	=156	=156	=156
1C	2A/]	1c	2.e/
.	2G/	.	.
.	.	.	4d/
1D	1F	1B	[1d
=157	=157	=157	=157
0AA	0E	0A	2d/]
.	.	.	4c#i/
.	.	.	4B/
.	.	.	1c#i
=158	=158	=158	=158
1A	[0D	1F	1d
1F	.	1D	1a
=159	=159	=159	=159
2D\	1D]	1d	2b\
1F	.	.	1a
.	[1A	1c	.
4E\	.	.	4g/
4D\	.	.	4f/
=160	=160	=160	=160
2C/	0A]	0c	1e
2.AA/	.	.	.
.	.	.	2f/
4BB/	.	.	.
[2C/	.	.	[2e/
=161	=161	=161	=161
2C/]	[0G	1c	2e/]
4BB/	.	.	4d/
4AA/	.	.	4c/
2GG/	.	[1d	2B/
[2BB/	.	.	[2d/
=162	=162	=162	=162
2BB/]	1G]	2d\]	2d/]
2C/	.	2c\	2e/
[1D	[1F	1A	2d/
.	.	.	4c/
.	.	.	4B/
=163	=163	=163	=163
2D\]	0F]	1d	1A
4C/	.	.	.
4BB/	.	.	.
1AA	.	2.c\	1a
.	.	4B\	.
=164	=164	=164	=164
1GG	0G	1d	1b
2r	.	2e\	2cc\
[2G\	.	[2d\	[2b\
=165	=165	=165	=165
2G\]	0r	4d\]	4b\]
.	.	4B\	4a/
2C/	.	2c\	1g
1D	.	1A	.
.	.	.	2f#i/
=166	=166	=166	=166
1E	0G	2r	1g
.	.	2.e\	.
2C/	.	.	2e/
.	.	4d\	.
2D\	.	[2d\	2f/
=167	=167	=167	=167
1E	1G	2d\]	1g
.	.	2c#i\	.
[1D	[1A	1d	1f
=168	=168	=168	=168
2D\]	1A]	2A/	2f/
2C/	.	2c\	1e
1D	1F	2.A/	.
.	.	.	2d/
.	.	4B\	.
=169	=169	=169	=169
1AA	0E	1c	2e/
.	.	.	2.g/
[1C	.	1G	.
.	.	.	4f/
.	.	.	[2e/
=170	=170	=170	=170
1C]	0G	1c	2e/]
.	.	.	4d/
.	.	.	4c/
1GG	.	[1d	1B
=171	=171	=171	=171
1D	1F	2d\]	1A
.	.	1A	.
1BB	1D	.	[1d
.	.	2G/	.
=172	=172	=172	=172
0AA	0E	0A	2d/]
.	.	.	2c#i/
.	.	.	2.c#i/
.	.	.	4B/
=173	=173	=173	=173
1A	0D	1r	1d
1F	.	[1d	1r
=174	=174	=174	=174
1D	0r	1d]	0a
1F	.	1c	.
=175	=175	=175	=175
2.G\	0r	1B	1g
4F\	.	.	.
2.D\	.	1A	1f
4C/	.	.	.
=176	=176	=176	=176
1AA	0A	1r	0e
2r	.	1c	.
2AA/	.	.	.
=177	=177	=177	=177
2BB/	1G	1d	1r
2C/	.	.	.
2D\	1F	1d	1a
2F\	.	.	.
=178	=178	=178	=178
1C	1E	1e	2g/
.	.	.	1a
1D	1r	1d	.
.	.	.	4g/
.	.	.	4f/
=179	=179	=179	=179
4AA/	1A	1.c	2.e/
4BB/	.	.	.
4C/	.	.	.
4D\	.	.	4f/
2E\	2G/	.	2g/
[2D\	[2A/	[2d\	[2f/
=180	=180	=180	=180
2D\]	2A/]	2d\]	2f/]
2D\	4G/	1A	4e/
.	4F/	.	4d/
1AA	1E	.	2.c#i/
.	.	2A/	.
.	.	.	4B/
=181	=181	=181	=181
*M3/1	*M3/1	*M3/1	*M3/1
*met(3)	*met(3)	*met(3)	*met(3)
1.A	0.D	0F	0.d
2G\	.	.	.
1F	.	1D	.
=182	=182	=182	=182
0E	0.r	0G	1r
.	.	.	1r
1D	.	1A	1d
=183	=183	=183	=183
1GG	0.r	0B	0g
1BB	.	.	.
1AA	.	1c	1a
=184	=184	=184	=184
0GG	1r	1.d	1.b
.	1r	.	.
.	.	2e\	2cc\
1r	1D	1f	1dd
=185	=185	=185	=185
0.r	0G	1g	1.dd
.	.	0e	.
.	.	.	2b\
.	1A	.	1cc
=186	=186	=186	=186
0G	1.B	0d	1dd
.	.	.	1b
.	2c\	.	.
1F	1d	1r	[1a
=187	=187	=187	=187
1D	1.d	1r	1a]
0E	.	0G	1g
.	2B\	.	.
.	1c	.	1e
=188	=188	=188	=188
0D	0d	1A	1f
.	.	1B	0d
1G	1B	1d	.
=189	=189	=189	=189
1C	1c	1e	0g
0D	0A	0d	.
.	.	.	1f#i
=190	=190	=190	=190
1E	0.G	1B	0g
1.C	.	1.e	.
.	.	.	1r
2BB/	.	2d\	.
=191	=191	=191	=191
0.GG	0.r	1B	1.dd
.	.	1G	.
.	.	.	2cc\
.	.	[1d	1b
=192	=192	=192	=192
0.r	0.r	2d\]	1a
.	.	2c\	.
.	.	1B	1.g
.	.	1A	.
.	.	.	2f/
=193	=193	=193	=193
1r	0.r	1G	1g
1r	.	1F	1.a
[1D	.	1D	.
.	.	.	2g/
=194	=194	=194	=194
1D]	0.r	1.A	1f
0AA	.	.	0e
.	.	2B\	.
.	.	1c	.
=195	=195	=195	=195
0D	1.d	1A	0d
.	.	1.d	.
.	2c\	.	.
1G	1B	.	1r
.	.	2e\	.
=196	=196	=196	=196
1D	1A	1f	0.r
1.E	1.G	1e	.
.	.	[1g	.
2D\	2F/	.	.
=197	=197	=197	=197
1.C	1G	2g\]	0.r
.	.	2f\	.
.	1.A	2e\	.
2BB/	.	2d\	.
1AA	.	1e	.
.	2G/	.	.
=198	=198	=198	=198
1D	1F	0d	0.r
0AA	0E	.	.
.	.	1c#i	.
=199	=199	=199	=199
0D	1D	1d	0.r
.	1F	1A	.
1BB	1G	1B	.
=200	=200	=200	=200
1AA	1A	1c	0.r
1GG	1.B	1.d	.
[1G	.	.	.
.	2A/	2c\	.
=201	=201	=201	=201
1G]	0G	1B	0.r
0D	.	0A	.
.	1F#i	.	.
=202	=202	=202	=202
0GG	0.G	0G	0g
1G	.	1r	1g
=203	=203	=203	=203
1.D	0.r	0d	0a
2E\	.	.	.
1F	.	1d	1f
=204	=204	=204	=204
1C	0.r	0e	1e
1E	.	.	1g
1F	.	1c	1a
=205	=205	=205	=205
0G	0G	0B	1d
.	.	.	0g
[1C	1G	[1c	.
=206	=206	=206	=206
1C]	0A	1c]	1e
0D	.	1A	1f
.	1F	1F	1d
=207	=207	=207	=207
1.C	0.E	1G	1.e
.	.	1E	.
2BB/	.	.	2d/
1AA	.	1F	1c
=208	=208	=208	=208
1.GG	1r	0G	0B
.	1r	.	.
2AA/	.	.	.
1BB	1G	1d	1r
=209	=209	=209	=209
1.C	0G	1e	1.g
.	.	1B	.
2D\	.	.	2f/
1E	1G	1c	2e/
.	.	.	2d/
=210	=210	=210	=210
1.D	1.F	1d	2a/
.	.	.	1a
.	.	1A	.
2C/	2G/	.	2g/
1AA	1A	1c	2f/
.	.	.	2e/
=211	=211	=211	=211
1GG	1B	0d	1g
1D	1.A	.	1.f
1C	.	1r	.
.	2G/	.	2e/
=212	=212	=212	=212
1D	1F	0.A	1.d
0AA	0E	.	.
.	.	.	2c#i/
.	.	.	2c#i/
.	.	.	2B/
=213	=213	=213	=213
0.Al	0.Dl	0.Al	0.dl
==	==	==	==
*-	*-	*-	*-
!!!RDF**kern: l=long note in original notation
!!!RDF**kern: i=editorial accidental
!!!ENC:	Chris Gage 10-23-2013
!!!END:	2013/10/25/
!!!EED:	Jesse Rodin
!!!EEV:	2014/01/03/
!!!ONB:	Translated from MusicXML and edited on 2014/01/03/ by Craig Sapp
!!muse2ps: T^@{OPR}^u^@{ONM}{. }@{OTL}^C^@{COM}^i2I150v85,85,85,150Q8c120
